small/extra/status/standard/cpufreq-75.svg

<?xml version="1.0" encoding="UTF-8" standalone="no"?>
<svg
   xmlns:dc="http://purl.org/dc/elements/1.1/"
   xmlns:cc="http://creativecommons.org/ns#"
   xmlns:rdf="http://www.w3.org/1999/02/22-rdf-syntax-ns#"
   xmlns:svg="http://www.w3.org/2000/svg"
   xmlns="http://www.w3.org/2000/svg"
   id="svg2"
   viewBox="0 0 512 512"
   height="100%"
   width="100%"
   version="1.1">
  <metadata
     id="metadata106">
    <rdf:RDF>
      <cc:Work
         rdf:about="">
        <dc:format>image/svg+xml</dc:format>
        <dc:type
           rdf:resource="http://purl.org/dc/dcmitype/StillImage" />
        <dc:title />
      </cc:Work>
    </rdf:RDF>
  </metadata>
  <defs
     id="defs104" />
  <path
     id="rect2986"
     d="M 26,0 C 11.60265,0 0,11.60265 0,26 l 0,460 c 0,14.39735 11.60265,26 26,26 l 460,0 c 14.39735,0 26,-11.60265 26,-26 L 512,26 C 512,11.60265 500.39735,0 486,0 L 26,0 Z"
     style="fill:#68af4c;fill-opacity:1;stroke:none" />
  <path
     id="path3676"
     d="m 84.1875,49.8125 c -17.69619,0 -34.375,16.36029 -34.375,40.375 l 0,331.59375 c 0,12.82982 4.77342,23.49217 11.90625,30.625 L 121.3125,512 486,512 c 14.39735,0 26,-11.60265 26,-26 L 512,120.6875 450.46875,59.15625 C 444.49412,53.18162 436.79294,49.8125 428.6875,49.8125 l -344.5,0 z m 45.90625,66.28125 253.40625,0 c 6.87949,0 12.40625,5.8896 12.40625,13.1875 l 0,24.21875 c 0,7.2979 -5.52676,13.1875 -12.40625,13.1875 l -253.40625,0 c -6.87949,0 -12.40625,-5.8896 -12.40625,-13.1875 l 0,-24.21875 c 0,-7.2979 5.52676,-13.1875 12.40625,-13.1875 z m 0,75.875 253.40625,0 c 6.87949,0 12.40625,5.8896 12.40625,13.1875 l 0,24.25 c 0,7.2979 -5.52676,13.15625 -12.40625,13.15625 l -253.40625,0 c -6.87949,0 -12.40625,-5.85835 -12.40625,-13.15625 l 0,-24.25 c 0,-7.2979 5.52676,-13.1875 12.40625,-13.1875 z m 0,75.90625 253.40625,0 c 6.87949,0 12.40625,5.85835 12.40625,13.15625 l 0,24.25 c 0,7.2979 -5.52676,13.15625 -12.40625,13.15625 l -253.40625,0 c -6.87949,0 -12.40625,-5.85835 -12.40625,-13.15625 l 0,-24.25 c 0,-7.2979 5.52676,-13.15625 12.40625,-13.15625 z m 0,75.875 253.40625,0 c 6.87949,0 12.40625,5.85835 12.40625,13.15625 l 0,24.25 c 0,7.2979 -5.52676,13.1875 -12.40625,13.1875 l -253.40625,0 c -6.87949,0 -12.40625,-5.8896 -12.40625,-13.1875 l 0,-24.25 c 0,-7.2979 5.52676,-13.15625 12.40625,-13.15625 z"
     style="opacity:0.25;fill:#000000;fill-opacity:1;stroke:none" />
  <path
     id="path3816"
     d="m 130.09375,116.09375 c -6.87949,0 -12.40625,5.8896 -12.40625,13.1875 l 0,24.21875 c 0,7.2979 5.52676,13.1875 12.40625,13.1875 l 253.40625,0 c 6.87949,0 12.40625,-5.8896 12.40625,-13.1875 l 0,-24.21875 c 0,-7.2979 -5.52676,-13.1875 -12.40625,-13.1875 l -253.40625,0 z"
     style="opacity:0.4;fill:#ffffff;fill-opacity:1;stroke:none" />
  <path
     id="path3814"
     d="m 130.09375,191.96875 c -6.87949,0 -12.40625,5.8896 -12.40625,13.1875 l 0,24.25 c 0,7.2979 5.52676,13.15625 12.40625,13.15625 l 253.40625,0 c 6.87949,0 12.40625,-5.85835 12.40625,-13.15625 l 0,-24.25 c 0,-7.2979 -5.52676,-13.1875 -12.40625,-13.1875 l -253.40625,0 z"
     style="fill:#ffffff;fill-opacity:1;stroke:none" />
  <path
     id="path3812"
     d="m 130.09375,267.875 c -6.87949,0 -12.40625,5.85835 -12.40625,13.15625 l 0,24.25 c 0,7.2979 5.52676,13.15625 12.40625,13.15625 l 253.40625,0 c 6.87949,0 12.40625,-5.85835 12.40625,-13.15625 l 0,-24.25 c 0,-7.2979 -5.52676,-13.15625 -12.40625,-13.15625 l -253.40625,0 z"
     style="fill:#ffffff;fill-opacity:1;stroke:none" />
  <path
     id="rect2920"
     d="m 130.09375,343.75 c -6.87949,0 -12.40625,5.85835 -12.40625,13.15625 l 0,24.25 c 0,7.2979 5.52676,13.1875 12.40625,13.1875 l 253.40625,0 c 6.87949,0 12.40625,-5.8896 12.40625,-13.1875 l 0,-24.25 c 0,-7.2979 -5.52676,-13.15625 -12.40625,-13.15625 l -253.40625,0 z"
     style="fill:#ffffff;fill-opacity:1;stroke:none" />
  <path
     id="path2909"
     d="m 84.1875,49.82813 c -17.69619,0 -34.375,16.36028 -34.375,40.375 l 0,331.59374 c 0,24.01472 16.67881,40.375 34.375,40.375 l 344.5,0 c 17.69618,0 33.5,-15.95367 33.5,-40.375 l 0,-331.59374 c 0,-24.42134 -15.80382,-40.375 -33.5,-40.375 l -344.5,0 z m 13.71875,40.96875 318.5625,0 c 0.81144,0 4.75,-0.32643 4.75,11.0625 l 0,306.68749 c 0,11.38885 -3.93846,11.09375 -4.75,11.09375 l -318.5625,0 c -0.41139,0 -5.53125,-0.89017 -5.53125,-11.09375 l 0,-306.68749 c 0,-10.20357 5.11986,-11.0625 5.53125,-11.0625 z"
     style="fill:#ffffff;fill-opacity:1;stroke:none" />
</svg>

<?xml version="1.0" encoding="UTF-8" standalone="no"?>
<svg
   xmlns:dc="http://purl.org/dc/elements/1.1/"
   xmlns:cc="http://creativecommons.org/ns#"
   xmlns:rdf="http://www.w3.org/1999/02/22-rdf-syntax-ns#"
   xmlns:svg="http://www.w3.org/2000/svg"
   xmlns="http://www.w3.org/2000/svg"
   xmlns:sodipodi="http://sodipodi.sourceforge.net/DTD/sodipodi-0.dtd"
   xmlns:inkscape="http://www.inkscape.org/namespaces/inkscape"
   sodipodi:docname="cpufreq-100.svg"
   height="100%"
   width="100%"
   inkscape:version="0.48.5 r10040"
   version="1.1"
   id="svg2"
   viewBox="0 0 512 512">
  <sodipodi:namedview
     pagecolor="#ffffff"
     bordercolor="#666666"
     borderopacity="1"
     objecttolerance="10"
     gridtolerance="10"
     guidetolerance="10"
     inkscape:pageopacity="0"
     inkscape:pageshadow="2"
     inkscape:window-width="1307"
     inkscape:window-height="748"
     id="namedview6"
     showgrid="false"
     showguides="true"
     inkscape:guide-bbox="true"
     inkscape:zoom="0.92187499"
     inkscape:cx="337.23932"
     inkscape:cy="285.24066"
     inkscape:window-x="57"
     inkscape:window-y="-3"
     inkscape:window-maximized="1"
     inkscape:current-layer="svg2">
    <sodipodi:guide
       orientation="0,1"
       position="260.08346,471.00503"
       id="guide2989" />
    <sodipodi:guide
       orientation="0,1"
       position="267.59322,40.983051"
       id="guide2991" />
    <sodipodi:guide
       orientation="1,0"
       position="40.940284,84.756935"
       id="guide2993" />
    <sodipodi:guide
       orientation="1,0"
       position="471.05085,254.98305"
       id="guide2995" />
  </sodipodi:namedview>
  <metadata
     id="metadata10">
    <rdf:RDF>
      <cc:Work
         rdf:about="">
        <dc:format>image/svg+xml</dc:format>
        <dc:type
           rdf:resource="http://purl.org/dc/dcmitype/StillImage" />
        <dc:title></dc:title>
      </cc:Work>
    </rdf:RDF>
  </metadata>
  <defs
     id="defs8">
    <clipPath
       id="clipPath3157"
       clipPathUnits="userSpaceOnUse">
      <path
         inkscape:connector-curvature="0"
         id="path3159"
         d="M 26,0 C 11.602648,0 0,11.602648 0,26 l 0,460 c 0,14.39735 11.602648,26 26,26 l 460,0 c 14.39735,0 26,-11.60265 26,-26 L 512,26 C 512,11.602648 500.39735,0 486,0 L 26,0 z"
         style="fill:#924565;fill-opacity:1;stroke:none" />
    </clipPath>
    <clipPath
       clipPathUnits="userSpaceOnUse"
       id="clipPath3408">
      <path
         id="path3410"
         d="M 26,0 C 11.602648,0 0,11.602648 0,26 l 0,460 c 0,14.39735 11.602648,26 26,26 l 460,0 c 14.39735,0 26,-11.60265 26,-26 L 512,26 C 512,11.602648 500.39735,0 486,0 L 26,0 z"
         style="fill:#8a704d;fill-opacity:1;stroke:none"
         inkscape:connector-curvature="0" />
    </clipPath>
    <clipPath
       id="clipPath3556"
       clipPathUnits="userSpaceOnUse">
      <path
         inkscape:connector-curvature="0"
         id="path3558"
         d="M 26,0 C 11.602648,0 0,11.602648 0,26 l 0,460 c 0,14.39735 11.602648,26 26,26 l 460,0 c 14.39735,0 26,-11.60265 26,-26 L 512,26 C 512,11.602648 500.39735,0 486,0 L 26,0 z"
         style="fill:#8a704d;fill-opacity:1;stroke:none" />
    </clipPath>
    <inkscape:perspective
       id="perspective2841"
       inkscape:persp3d-origin="0.5 : 0.33333333 : 1"
       inkscape:vp_z="1 : 0.5 : 1"
       inkscape:vp_y="0 : 1000 : 0"
       inkscape:vp_x="0 : 0.5 : 1"
       sodipodi:type="inkscape:persp3d" />
    <inkscape:perspective
       sodipodi:type="inkscape:persp3d"
       inkscape:vp_x="0 : 32 : 1"
       inkscape:vp_y="0 : 1000 : 0"
       inkscape:vp_z="64 : 32 : 1"
       inkscape:persp3d-origin="32 : 21.333333 : 1"
       id="perspective2868" />
  </defs>
  <path
     style="fill:#68af4c;fill-opacity:1;stroke:none"
     d="M 26 0 C 11.602648 0 0 11.602648 0 26 L 0 486 C 0 500.39735 11.602648 512 26 512 L 486 512 C 500.39735 512 512 500.39735 512 486 L 512 26 C 512 11.602648 500.39735 0 486 0 L 26 0 z "
     id="rect2986" />
  <path
     style="fill:#000000;fill-opacity:1;stroke:none;opacity:0.25"
     d="M 84.1875 49.8125 C 66.491315 49.8125 49.8125 66.172784 49.8125 90.1875 L 49.8125 421.78125 C 49.8125 434.61107 54.585923 445.27342 61.71875 452.40625 L 121.3125 512 L 486 512 C 500.39735 512 512 500.39735 512 486 L 512 120.6875 L 450.46875 59.15625 C 444.49412 53.181615 436.79294 49.8125 428.6875 49.8125 L 84.1875 49.8125 z M 130.09375 116.09375 L 383.5 116.09375 C 390.37949 116.09375 395.90625 121.98335 395.90625 129.28125 L 395.90625 153.5 C 395.90625 160.7979 390.37949 166.6875 383.5 166.6875 L 130.09375 166.6875 C 123.21426 166.6875 117.6875 160.7979 117.6875 153.5 L 117.6875 129.28125 C 117.6875 121.98335 123.21426 116.09375 130.09375 116.09375 z M 130.09375 191.96875 L 383.5 191.96875 C 390.37949 191.96875 395.90625 197.85835 395.90625 205.15625 L 395.90625 229.40625 C 395.90625 236.70415 390.37949 242.5625 383.5 242.5625 L 130.09375 242.5625 C 123.21426 242.5625 117.6875 236.70415 117.6875 229.40625 L 117.6875 205.15625 C 117.6875 197.85835 123.21426 191.96875 130.09375 191.96875 z M 130.09375 267.875 L 383.5 267.875 C 390.37949 267.875 395.90625 273.73335 395.90625 281.03125 L 395.90625 305.28125 C 395.90625 312.57915 390.37949 318.4375 383.5 318.4375 L 130.09375 318.4375 C 123.21426 318.4375 117.6875 312.57915 117.6875 305.28125 L 117.6875 281.03125 C 117.6875 273.73335 123.21426 267.875 130.09375 267.875 z M 130.09375 343.75 L 383.5 343.75 C 390.37949 343.75 395.90625 349.60835 395.90625 356.90625 L 395.90625 381.15625 C 395.90625 388.45415 390.37949 394.34375 383.5 394.34375 L 130.09375 394.34375 C 123.21426 394.34375 117.6875 388.45415 117.6875 381.15625 L 117.6875 356.90625 C 117.6875 349.60835 123.21426 343.75 130.09375 343.75 z "
     id="path3676" />
  <path
     style="fill:#ffffff;fill-opacity:1;stroke:none;opacity:0.4"
     d="m 130.09375,116.09375 c -6.87949,0 -12.40625,5.8896 -12.40625,13.1875 l 0,24.21875 c 0,7.2979 5.52676,13.1875 12.40625,13.1875 l 253.40625,0 c 6.87949,0 12.40625,-5.8896 12.40625,-13.1875 l 0,-24.21875 c 0,-7.2979 -5.52676,-13.1875 -12.40625,-13.1875 l -253.40625,0 z"
     id="path3816" />
  <path
     style="fill:#ffffff;fill-opacity:1;stroke:none"
     d="m 130.09375,191.96875 c -6.87949,0 -12.40625,5.8896 -12.40625,13.1875 l 0,24.25 c 0,7.2979 5.52676,13.15625 12.40625,13.15625 l 253.40625,0 c 6.87949,0 12.40625,-5.85835 12.40625,-13.15625 l 0,-24.25 c 0,-7.2979 -5.52676,-13.1875 -12.40625,-13.1875 l -253.40625,0 z"
     id="path3814" />
  <path
     style="fill:#ffffff;fill-opacity:1;stroke:none"
     d="m 130.09375,267.875 c -6.87949,0 -12.40625,5.85835 -12.40625,13.15625 l 0,24.25 c 0,7.2979 5.52676,13.15625 12.40625,13.15625 l 253.40625,0 c 6.87949,0 12.40625,-5.85835 12.40625,-13.15625 l 0,-24.25 c 0,-7.2979 -5.52676,-13.15625 -12.40625,-13.15625 l -253.40625,0 z"
     id="path3812" />
  <path
     style="fill:#ffffff;fill-opacity:1;stroke:none"
     d="m 130.09375,343.75 c -6.87949,0 -12.40625,5.85835 -12.40625,13.15625 l 0,24.25 c 0,7.2979 5.52676,13.1875 12.40625,13.1875 l 253.40625,0 c 6.87949,0 12.40625,-5.8896 12.40625,-13.1875 l 0,-24.25 c 0,-7.2979 -5.52676,-13.15625 -12.40625,-13.15625 l -253.40625,0 z"
     id="rect2920" />
  <path
     inkscape:connector-curvature="0"
     style="fill:#ffffff;fill-opacity:1;stroke:none"
     d="m 84.1875,49.828125 c -17.696185,0 -34.375,16.360284 -34.375,40.375 l 0,331.593745 c 0,24.01472 16.678815,40.375 34.375,40.375 l 344.5,0 c 17.69618,0 33.5,-15.95367 33.5,-40.375 l 0,-331.593745 c 0,-24.421339 -15.80382,-40.375 -33.5,-40.375 l -344.5,0 z m 13.71875,40.96875 318.5625,0 c 0.81144,0 4.75,-0.32643 4.75,11.062505 l 0,306.68749 c 0,11.38885 -3.93846,11.09375 -4.75,11.09375 l -318.5625,0 c -0.41139,0 -5.53125,-0.89017 -5.53125,-11.09375 l 0,-306.68749 c 0,-10.203575 5.11986,-11.062505 5.53125,-11.062505 z"
     id="path2909" />
</svg>
